icons/svg/icons8/frisbee.svg

<svg width="26" height="26" viewBox="0 0 26 26" fill="none" xmlns="http://www.w3.org/2000/svg">
<path d="M23 2.81301C24.5536 2.81301 25.813 2.22516 25.813 1.50001C25.813 0.774862 24.5536 0.187012 23 0.187012C21.4464 0.187012 20.187 0.774862 20.187 1.50001C20.187 2.22516 21.4464 2.81301 23 2.81301Z" fill="#333333"/>
<path d="M18.6881 0.132002C18.0411 -0.229998 17.3941 1.589 17.0341 2.362C15.6491 5.339 12.6501 6.271 12.6501 6.271C12.6501 6.271 10.7111 6.877 9.99811 6.844C9.52911 6.823 9.15811 6.815 8.61711 7.025C8.07511 7.235 6.12511 8.64 5.39011 11.734C4.49411 15.509 5.19911 16.937 5.81211 16.937C6.31211 16.937 6.13111 14.447 6.78111 12.593C7.39111 10.851 8.48811 9.647 8.48811 9.647C8.48811 9.647 9.04511 13.909 7.39811 17.043C5.81811 20.051 2.04911 19.321 2.11511 20.326C2.18711 21.456 6.50811 20.772 7.98611 19.733C10.0931 18.251 10.8901 15.827 10.8901 15.827C10.8901 15.827 11.2921 18.39 10.5151 20.173C8.96811 23.721 6.68811 24.765 7.19711 25.621C7.67211 26.421 11.8011 23.328 13.0081 20.332C13.4411 19.257 13.7631 16.767 13.9091 14.073C14.0131 12.155 14.0291 10.135 13.9341 8.449C13.9341 8.449 16.6401 7.082 18.0591 3.963C18.3301 3.37 19.2501 0.445002 18.6881 0.132002Z" fill="#333333"/>
<path d="M10.688 5.81399C11.9654 5.81399 13.001 4.77842 13.001 3.50099C13.001 2.22355 11.9654 1.18799 10.688 1.18799C9.41057 1.18799 8.375 2.22355 8.375 3.50099C8.375 4.77842 9.41057 5.81399 10.688 5.81399Z" fill="#333333"/>
</svg>

<?xml version="1.0" encoding="utf-8"?>
<!-- Generator: Adobe Illustrator 15.0.0, SVG Export Plug-In . SVG Version: 6.00 Build 0)  -->
<!DOCTYPE svg PUBLIC "-//W3C//DTD SVG 1.1//EN" "http://www.w3.org/Graphics/SVG/1.1/DTD/svg11.dtd">
<svg version="1.1" id="Layer_1" xmlns="http://www.w3.org/2000/svg" xmlns:xlink="http://www.w3.org/1999/xlink" x="0px" y="0px"
	 width="26px" height="26px" viewBox="0 0 26 26" enable-background="new 0 0 26 26" xml:space="preserve">
<rect fill="none" width="26" height="26"/>
<g>
	<ellipse fill="#333333" cx="23" cy="1.5" rx="2.813" ry="1.313"/>
</g>
<path fill="#333333" d="M18.688,0.132c-0.647-0.362-1.294,1.457-1.654,2.23c-1.385,2.977-4.384,3.909-4.384,3.909
	s-1.939,0.606-2.652,0.573c-0.469-0.021-0.84-0.029-1.381,0.181c-0.542,0.21-2.492,1.615-3.227,4.709
	c-0.896,3.775-0.191,5.203,0.422,5.203c0.5,0,0.319-2.49,0.969-4.344c0.61-1.742,1.707-2.946,1.707-2.946s0.557,4.262-1.09,7.396
	c-1.58,3.008-5.349,2.278-5.283,3.283c0.072,1.13,4.393,0.446,5.871-0.593c2.107-1.482,2.904-3.906,2.904-3.906
	s0.402,2.563-0.375,4.346c-1.547,3.548-3.827,4.592-3.318,5.448c0.475,0.8,4.604-2.293,5.811-5.289
	c0.433-1.075,0.755-3.565,0.901-6.259c0.104-1.918,0.12-3.938,0.025-5.624c0,0,2.706-1.367,4.125-4.486
	C18.33,3.37,19.25,0.445,18.688,0.132z"/>
<g>
	<circle fill="#333333" cx="10.688" cy="3.501" r="2.313"/>
</g>
</svg>
